assets/img/tasses/TasseGlace.svg

<?xml version="1.0" encoding="utf-8"?>
<!-- generated at drububu.com  -->
<!DOCTYPE svg PUBLIC "-//W3C//DTD SVG 1.1//EN" "http://www.w3.org/Graphics/SVG/1.1/DTD/svg11.dtd">
<svg version="1.1" preserveAspectRatio="xMinYMin meet" xmlns="http://www.w3.org/2000/svg" xmlns:xlink="http://www.w3.org/1999/xlink" x="0px" y="0px" width="22px" height="16px" viewBox="0 0 22 16">
<path d="M0 0h2v2h-2v-2z" fill="rgba(255,255,255,0)"/>
<path d="M2 0h6v2h-6v-2z" fill="rgb(44,90,151)"/>
<path d="M8 0h2v2h-2v-2z" fill="rgb(27,75,139)"/>
<path d="M10 0h6v2h-6v-2z" fill="rgb(18,66,133)"/>
<path d="M16 0h6v4h-2v-2h-4v-2z" fill="rgba(255,255,255,0)"/>
<path d="M0 2h2v4h-2v-4z" fill="rgb(44,90,151)"/>
<path d="M2 2h2v2h-2v-2z" fill="rgb(173,210,243)"/>
<path d="M4 2h2v2h-2v-2z" fill="rgb(165,204,243)"/>
<path d="M6 2h4v2h-4v-2z" fill="rgb(154,195,241)"/>
<path d="M10 2h2v2h-2v-2z" fill="rgb(141,184,240)"/>
<path d="M12 2h4v2h-4v-2z" fill="rgb(130,176,238)"/>
<path d="M16 2h4v2h-4v-2z" fill="rgb(18,66,133)"/>
<path d="M2 4h4v2h-4v-2z" fill="rgb(21,109,230)"/>
<path d="M6 4h10v2h-10v-2z" fill="rgb(0,95,229)"/>
<path d="M16 4h2v2h-2v-2z" fill="rgb(90,129,189)"/>
<path d="M18 4h2v2h-2v-2z" fill="rgb(85,123,181)"/>
<path d="M20 4h2v4h-2v-4z" fill="rgb(18,66,133)"/>
<path d="M0 6h2v2h-2v-2z" fill="rgb(27,75,139)"/>
<path d="M2 6h2v2h-2v-2z" fill="rgb(165,204,243)"/>
<path d="M4 6h2v2h-2v-2z" fill="rgb(154,195,241)"/>
<path d="M6 6h4v2h-4v-2z" fill="rgb(141,184,240)"/>
<path d="M10 6h4v2h-4v-2z" fill="rgb(110,159,236)"/>
<path d="M14 6h2v2h-2v-2z" fill="rgb(141,184,240)"/>
<path d="M16 6h2v2h-2v-2z" fill="rgb(18,66,133)"/>
<path d="M18 6h2v2h-2v-2z" fill="rgb(96,138,200)"/>
<path d="M0 8h2v4h-2v-4z" fill="rgb(18,66,133)"/>
<path d="M2 8h2v2h-2v-2z" fill="rgb(21,109,230)"/>
<path d="M4 8h10v2h-10v-2z" fill="rgb(0,95,229)"/>
<path d="M14 8h2v2h-2v-2z" fill="rgb(21,109,230)"/>
<path d="M16 8h2v2h-2v-2z" fill="rgb(100,145,216)"/>
<path d="M18 8h2v2h-2v-2z" fill="rgb(27,75,139)"/>
<path d="M20 8h2v8h-8v-2h2v-2h2v-2h2v-2z" fill="rgba(255,255,255,0)"/>
<path d="M2 10h2v2h-2v-2z" fill="rgb(154,195,241)"/>
<path d="M4 10h2v2h-2v-2z" fill="rgb(141,184,240)"/>
<path d="M6 10h2v2h-2v-2z" fill="rgb(124,169,238)"/>
<path d="M8 10h4v2h-4v-2z" fill="rgb(110,159,236)"/>
<path d="M12 10h2v2h-2v-2z" fill="rgb(141,184,240)"/>
<path d="M14 10h2v2h-2v-2z" fill="rgb(154,195,241)"/>
<path d="M16 10h2v2h-2v-2z" fill="rgb(44,90,151)"/>
<path d="M0 12h2v2h2v2h-4v-4z" fill="rgba(255,255,255,0)"/>
<path d="M2 12h2v2h-2v-2z" fill="rgb(18,66,133)"/>
<path d="M4 12h4v2h-4v-2z" fill="rgb(47,71,105)"/>
<path d="M8 12h2v2h-2v-2z" fill="rgb(68,92,123)"/>
<path d="M10 12h2v2h-2v-2z" fill="rgb(87,111,139)"/>
<path d="M12 12h2v2h-2v-2z" fill="rgb(103,127,153)"/>
<path d="M14 12h2v2h-2v-2z" fill="rgb(44,90,151)"/>
<path d="M4 14h6v2h-6v-2z" fill="rgb(18,66,133)"/>
<path d="M10 14h4v2h-4v-2z" fill="rgb(27,75,139)"/>
</svg>

<svg xmlns="http://www.w3.org/2000/svg" width="22" height="16" preserveAspectRatio="xMinYMin meet"><path fill="rgba(255,255,255,0)" d="M0 0h2v2H0V0z"/><path fill="#2C5A97" d="M2 0h6v2H2V0z"/><path fill="#1B4B8B" d="M8 0h2v2H8V0z"/><path fill="#124285" d="M10 0h6v2h-6V0z"/><path fill="rgba(255,255,255,0)" d="M16 0h6v4h-2V2h-4V0z"/><path fill="#2C5A97" d="M0 2h2v4H0V2z"/><path fill="#ADD2F3" d="M2 2h2v2H2V2z"/><path fill="#A5CCF3" d="M4 2h2v2H4V2z"/><path fill="#9AC3F1" d="M6 2h4v2H6V2z"/><path fill="#8DB8F0" d="M10 2h2v2h-2V2z"/><path fill="#82B0EE" d="M12 2h4v2h-4V2z"/><path fill="#124285" d="M16 2h4v2h-4V2z"/><path fill="#156DE6" d="M2 4h4v2H2V4z"/><path fill="#005FE5" d="M6 4h10v2H6V4z"/><path fill="#5A81BD" d="M16 4h2v2h-2V4z"/><path fill="#557BB5" d="M18 4h2v2h-2V4z"/><path fill="#124285" d="M20 4h2v4h-2V4z"/><path fill="#1B4B8B" d="M0 6h2v2H0V6z"/><path fill="#A5CCF3" d="M2 6h2v2H2V6z"/><path fill="#9AC3F1" d="M4 6h2v2H4V6z"/><path fill="#8DB8F0" d="M6 6h4v2H6V6z"/><path fill="#6E9FEC" d="M10 6h4v2h-4V6z"/><path fill="#8DB8F0" d="M14 6h2v2h-2V6z"/><path fill="#124285" d="M16 6h2v2h-2V6z"/><path fill="#608AC8" d="M18 6h2v2h-2V6z"/><path fill="#124285" d="M0 8h2v4H0V8z"/><path fill="#156DE6" d="M2 8h2v2H2V8z"/><path fill="#005FE5" d="M4 8h10v2H4V8z"/><path fill="#156DE6" d="M14 8h2v2h-2V8z"/><path fill="#6491D8" d="M16 8h2v2h-2V8z"/><path fill="#1B4B8B" d="M18 8h2v2h-2V8z"/><path fill="rgba(255,255,255,0)" d="M20 8h2v8h-8v-2h2v-2h2v-2h2V8z"/><path fill="#9AC3F1" d="M2 10h2v2H2v-2z"/><path fill="#8DB8F0" d="M4 10h2v2H4v-2z"/><path fill="#7CA9EE" d="M6 10h2v2H6v-2z"/><path fill="#6E9FEC" d="M8 10h4v2H8v-2z"/><path fill="#8DB8F0" d="M12 10h2v2h-2v-2z"/><path fill="#9AC3F1" d="M14 10h2v2h-2v-2z"/><path fill="#2C5A97" d="M16 10h2v2h-2v-2z"/><path fill="rgba(255,255,255,0)" d="M0 12h2v2h2v2H0v-4z"/><path fill="#124285" d="M2 12h2v2H2v-2z"/><path fill="#2F4769" d="M4 12h4v2H4v-2z"/><path fill="#445C7B" d="M8 12h2v2H8v-2z"/><path fill="#576F8B" d="M10 12h2v2h-2v-2z"/><path fill="#677F99" d="M12 12h2v2h-2v-2z"/><path fill="#2C5A97" d="M14 12h2v2h-2v-2z"/><path fill="#124285" d="M4 14h6v2H4v-2z"/><path fill="#1B4B8B" d="M10 14h4v2h-4v-2z"/></svg>
